packages/kaspersky-hexa-ui-icons/src/iconsSVGs/24/WhatsappColor.svg

<svg width="24" height="24" viewBox="0 0 24 24" fill="none" xmlns="http://www.w3.org/2000/svg">
<path fill-rule="evenodd" clip-rule="evenodd" d="M19.0859 4.90417C17.2061 3.03232 14.7059 2.00095 12.042 2C6.55283 2 2.08547 6.44221 2.08356 11.9025C2.08261 13.648 2.54147 15.3518 3.41288 16.8533L2 21.9854L7.27909 20.6083C8.7335 21.3976 10.3713 21.813 12.0377 21.8135H12.042C17.5302 21.8135 21.9981 17.3708 22 11.9106C22.0009 9.26426 20.9662 6.7765 19.0859 4.90465V4.90417ZM12.042 20.1411H12.0387C10.5537 20.1407 9.09689 19.7436 7.82583 18.9939L7.52357 18.8154L4.39078 19.6325L5.22686 16.5949L5.03013 16.2834C4.20169 14.9729 3.76383 13.4581 3.76479 11.903C3.7667 7.36484 7.47963 3.67241 12.0454 3.67241C14.2561 3.67336 16.3342 4.53047 17.8969 6.08655C19.4598 7.64216 20.3197 9.71061 20.3188 11.9096C20.3168 16.4482 16.6039 20.1407 12.042 20.1407V20.1411ZM16.5819 13.9766C16.3332 13.8527 15.1099 13.2544 14.8816 13.1718C14.6534 13.0891 14.4877 13.0478 14.322 13.2957C14.1563 13.5436 13.6793 14.1011 13.5342 14.2658C13.389 14.4311 13.2438 14.4515 12.9951 14.3275C12.7463 14.2036 11.9446 13.9424 10.9939 13.0996C10.2543 12.4433 9.75483 11.6333 9.60972 11.3854C9.46456 11.1375 9.59444 11.0036 9.71856 10.8806C9.83028 10.7695 9.96733 10.5914 10.0919 10.4471C10.2166 10.3027 10.2577 10.1992 10.3407 10.0344C10.4238 9.86917 10.3823 9.72486 10.3202 9.60088C10.2581 9.47696 9.76061 8.25895 9.55289 7.7637C9.35089 7.28127 9.14561 7.3468 8.99328 7.33872C8.84811 7.3316 8.68244 7.33018 8.51628 7.33018C8.35011 7.33018 8.08078 7.39191 7.85256 7.63978C7.62433 7.88763 6.98162 8.48641 6.98162 9.70392C6.98162 10.9214 7.87311 12.0986 7.99772 12.2639C8.12233 12.4291 9.75244 14.9282 12.2483 16.0004C12.8418 16.2554 13.3054 16.4078 13.6669 16.5218C14.2628 16.7103 14.8052 16.6838 15.234 16.6201C15.712 16.5489 16.7061 16.0213 16.9133 15.4434C17.1206 14.8655 17.1206 14.3698 17.0585 14.2667C16.9964 14.1637 16.8303 14.1015 16.5815 13.9776L16.5819 13.9766Z" fill="#25D366"/>
</svg>

<svg xmlns="http://www.w3.org/2000/svg" width="24" height="24" fill="none" viewBox="0 0 24 24"><path fill="#25d366" fill-rule="evenodd" d="M19.0859 4.9042C17.2061 3.0323 14.7059 2.0009 12.042 2c-5.4892 0-9.9565 4.4422-9.9584 9.9025a9.84 9.84 0 0 0 1.3293 4.9508L2 21.9854l5.279-1.3771c1.4545.7893 3.0923 1.2047 4.7587 1.2052h.0043c5.4882 0 9.9561-4.4427 9.958-9.9029.0009-2.6463-1.0338-5.1341-2.9141-7.006zM12.042 20.141h-.0033c-1.485-.0004-2.9418-.3975-4.2129-1.1472l-.3022-.1785-3.1328.8171.836-3.0376-.1967-.3115a8.176 8.176 0 0 1-1.2653-4.3804c.0019-4.5382 3.7148-8.2306 8.2806-8.2306 2.2107.001 4.2888.858 5.8515 2.4141 1.5629 1.5557 2.4228 3.6241 2.4219 5.8231-.002 4.5386-3.7149 8.2311-8.2768 8.2311zm4.5399-6.1645c-.2487-.1239-1.472-.7222-1.7003-.8048s-.3939-.124-.5596.1239-.6427.8054-.7878.9701c-.1452.1653-.2904.1857-.5391.0617-.2488-.1239-1.0505-.3851-2.0012-1.2279-.7396-.6563-1.239-1.4663-1.3842-1.7142s-.0153-.3818.1089-.5048c.1117-.1111.2487-.2892.3733-.4335.1247-.1444.1658-.2479.2488-.4127.0831-.1652.0416-.3095-.0205-.4335s-.5596-1.342-.7673-1.8372c-.202-.4824-.4073-.4169-.5596-.425-.1452-.0071-.3109-.0085-.477-.0085-.1662 0-.4355.0617-.6637.3096-.2283.2478-.871.8466-.871 2.0641s.8915 2.3947 1.0161 2.56c.1246.1652 1.7547 2.6643 4.2506 3.7365.5935.255 1.0571.4074 1.4186.5214.5959.1885 1.1383.162 1.5671.0983.478-.0712 1.4721-.5988 1.6793-1.1767s.2073-1.0736.1452-1.1767-.2282-.1652-.477-.2891z" clip-rule="evenodd"/></svg>
